icons/apache/apache-plain.svg

<svg xmlns="http://www.w3.org/2000/svg" viewBox="0 0 128 128"><path fill-rule="evenodd" d="M32 127.954C32.7275 127.771 33.6784 126.887 33.8506 126.326C36.6986 117.057 41.4773 102.173 47.6151 85.7033C53.0889 71.0155 59.6615 55.069 66.9246 40.7093C71.3367 31.9861 75.9554 23.8191 80.7964 16.9099C83.3186 13.3104 85.8454 10.0577 88.5213 7.23006C86.0002 10.0112 83.6659 13.3394 81.2559 17.049C76.6571 24.1277 71.9983 32.5482 67.7093 41.3673C60.064 57.0877 53.3504 73.9965 48.6896 86.7276C47.0111 91.3122 45.5768 95.3964 44.492 98.6302C45.6631 99.0574 47.1788 101.121 48.0565 102.825C47.9685 100.904 47.1788 99.0459 45.5929 97.5803C52.5053 97.8661 59.1575 96.2812 62.2582 89.7297C60.2552 92.131 58.2817 92.014 55.9101 92.014C57.7544 91.1632 59.8351 90.216 61.9037 88.3926C63.9724 86.5692 65.3338 84.5092 66.7295 81.7209C63.0416 85.2675 58.9269 87.3923 52.3771 86.3015C54.9546 85.8711 62.162 84.1184 68.6452 76.0644C73.1234 70.5011 75.9041 63.1727 77.7736 57.3224C76.551 58.0172 74.4602 58.5825 72.7641 58.8108C77.8266 56.8301 80.3384 52.8199 81.6579 50.0999C79.7883 51.3018 78.334 52.0662 75.4629 52.5202C77.9459 51.5994 80.3445 49.7971 81.8799 47.7556C83.4479 45.6707 85.5816 40.7375 86.1212 37.8611C84.9988 38.7977 81.6579 39.8471 79.7015 40.083C81.2961 39.3708 84.1171 38.2841 86.9237 34.1185C91.2664 27.6731 94.523 20.3693 95.4693 15.2878C96.3694 10.4547 95.6857 6.88622 94.4351 4.42566C93.4241 2.43629 90.9305 0 88.5213 0C86.643 0 84.8146 1.60813 82.3747 4.07519C79.9347 6.54225 78.4278 8.37059 77.1244 10.0112C72.7026 15.5766 67.3554 22.958 62.1564 31.2957C53.8676 44.5886 45.9648 60.494 42.8186 76.2497C42.174 79.4777 41.7195 82.6844 41.5128 85.8776C40.5674 84.4476 38.8539 82.8741 36.0317 81.1956C37.0802 82.5605 41.358 88.9604 41.358 93.5123C40.4367 93.6968 37.7797 93.5123 35.3534 92.4872C36.8758 93.9149 38.5222 95.0904 40.452 95.5916C38.1018 95.8232 35.8129 97.2862 33.341 99.1817C36.4544 97.955 39.3399 97.1296 41.8353 97.6361C38.6761 106.369 33.6471 122.268 32 127.954Z" clip-rule="evenodd"/></svg>

<svg xmlns="http://www.w3.org/2000/svg" viewBox="0 0 128 128"><path fill="#CB2533" d="M32 127.954c.727-.183 1.678-1.067 1.85-1.628 2.849-9.269 7.627-24.153 13.765-40.623C53.09 71.016 59.661 55.07 66.925 40.71c4.412-8.723 9.03-16.89 13.871-23.8 2.523-3.599 5.05-6.851 7.725-9.679-2.52 2.781-4.855 6.11-7.265 9.819-4.599 7.079-9.258 15.5-13.547 24.318-7.645 15.72-14.359 32.63-19.02 45.36a476 476 0 0 0-4.197 11.903c1.171.427 2.687 2.491 3.565 4.195-.089-1.921-.878-3.78-2.464-5.245 6.912.286 13.564-1.299 16.665-7.85-2.003 2.401-3.976 2.284-6.348 2.284 1.844-.85 3.925-1.798 5.994-3.621 2.068-1.824 3.43-3.884 4.825-6.672-3.687 3.546-7.802 5.671-14.352 4.58 2.578-.43 9.785-2.183 16.268-10.237 4.478-5.563 7.26-12.891 9.129-18.742-1.223.695-3.314 1.26-5.01 1.489 5.063-1.98 7.574-5.991 8.894-8.711-1.87 1.202-3.324 1.966-6.195 2.42 2.483-.92 4.882-2.723 6.417-4.764 1.568-2.085 3.702-7.019 4.241-9.895-1.122.937-4.463 1.986-6.42 2.222 1.595-.712 4.416-1.799 7.223-5.965 4.342-6.445 7.599-13.749 8.545-18.83.9-4.833.217-8.402-1.034-10.862C93.425 2.436 90.93 0 88.521 0c-1.878 0-3.706 1.608-6.146 4.075a68 68 0 0 0-5.25 5.936c-4.422 5.566-9.77 12.947-14.969 21.285C53.868 44.589 45.965 60.494 42.82 76.25c-.645 3.228-1.1 6.434-1.306 9.628-.946-1.43-2.66-3.004-5.481-4.682 1.048 1.365 5.326 7.764 5.326 12.316-.921.185-3.578 0-6.005-1.025 1.523 1.428 3.17 2.603 5.099 3.105-2.35.231-4.64 1.694-7.111 3.59 3.113-1.227 5.999-2.052 8.494-1.546-3.159 8.733-8.188 24.632-9.835 30.318"/></svg>
